icon-svg/dish-network.svg

<svg xmlns="http://www.w3.org/2000/svg" fill="#44739e" viewBox="0 0 24 24"><path d="M12 7.309a2.655 2.655 0 1 1 2.657-2.655A2.654 2.654 0 0 1 12 7.309m5.44 10.317A5.66 5.66 0 0 1 12.017 22h-.034a5.663 5.663 0 0 1-5.424-4.374c-.062-.25.095-.538.389-.373a10.338 10.338 0 0 0 10.1 0c.298-.167.452.121.393.373zm-1.14-4.652a4.469 4.469 0 0 1-4.283 3.453h-.026A4.469 4.469 0 0 1 7.7 12.974c-.048-.2.075-.426.309-.3a8.153 8.153 0 0 0 7.976 0c.232-.13.357.1.307.3zm-1.224-4.188a3.2 3.2 0 0 1-3.067 2.472h-.018a3.2 3.2 0 0 1-3.067-2.472c-.035-.142.053-.306.219-.211a5.851 5.851 0 0 0 5.714 0c.165-.093.254.069.219.211"/></svg>

<?xml version="1.0" encoding="UTF-8"?>
<svg width="24px" fill="#44739e" height="24px" viewBox="0 0 24 24" version="1.1" xmlns="http://www.w3.org/2000/svg" xmlns:xlink="http://www.w3.org/1999/xlink">
            <path d="M 12,7.309 A 2.655,2.655 0 1 1 14.657,4.654 2.654,2.654 0 0 1 12,7.309 Z m 5.44,10.317 A 5.66,5.66 0 0 1 12.017,22 H 11.983 A 5.663,5.663 0 0 1 6.559,17.626 c -0.062,-0.25 0.095,-0.538 0.389,-0.373 a 10.338,10.338 0 0 0 10.1,0 c 0.298,-0.167 0.452,0.121 0.393,0.373 z M 16.3,12.974 a 4.469,4.469 0 0 1 -4.283,3.453 H 11.991 A 4.469,4.469 0 0 1 7.7,12.974 c -0.048,-0.2 0.075,-0.426 0.309,-0.3 a 8.153,8.153 0 0 0 7.976,0 c 0.232,-0.13 0.357,0.1 0.307,0.3 z M 15.076,8.786 a 3.2,3.2 0 0 1 -3.067,2.472 H 11.991 A 3.2,3.2 0 0 1 8.924,8.786 C 8.889,8.644 8.977,8.48 9.143,8.575 a 5.851,5.851 0 0 0 5.714,0 c 0.165,-0.093 0.254,0.069 0.219,0.211 z"/>

</svg>
